build/security/SafetySolid.svg

<svg xmlns="http://www.w3.org/2000/svg" fill="none" viewBox="0 0 24 24" focusable="false"><path d="M0 0H24V24H0z"/><path fill="#74767B" fill-rule="evenodd" d="M4 6.01496C4 5.41844 4.40599 4.89846 4.9847 4.75378L11.2724 3.18186C11.7501 3.06243 12.2499 3.06243 12.7276 3.18186L19.0153 4.75378C19.594 4.89846 20 5.41844 20 6.01497L20 11.2454C20 14.3485 18.4014 17.2327 15.77 18.8773L12.689 20.803C12.2674 21.0664 11.7326 21.0664 11.311 20.803L8.23001 18.8773C5.59858 17.2327 4 14.3485 4 11.2454L4 6.01496ZM13.689 8.92195L12.358 6.22208C12.2099 5.92597 11.7886 5.92597 11.6405 6.22208L10.3095 8.92195C10.2658 9.01057 10.1813 9.07199 10.0835 9.08619L7.10217 9.51905C6.7776 9.56461 6.64663 9.9689 6.88579 10.1967L9.03922 12.296C9.1099 12.3649 9.14216 12.4641 9.1255 12.5614L8.61685 15.5322C8.5656 15.8568 8.90726 16.1073 9.19766 15.9536L11.8598 14.5522C11.9471 14.5062 12.0514 14.5061 12.1388 14.552L14.8008 15.9479C15.0969 16.1016 15.4386 15.8511 15.3816 15.5265L14.8731 12.5617C14.8564 12.4643 14.8887 12.3649 14.9596 12.2959L17.1184 10.1967C17.3518 9.9689 17.2209 9.56461 16.8963 9.51905L13.915 9.08619C13.8172 9.07199 13.7327 9.01057 13.689 8.92195Z"/></svg>

<svg xmlns="http://www.w3.org/2000/svg" fill="none" viewBox="0 0 24 24" focusable="false"><path fill="#74767B" fill-rule="evenodd" d="M4 6.01c0-.6.4-1.12.98-1.26l6.29-1.57c.48-.12.97-.12 1.45 0l6.29 1.57c.58.14.99.66.99 1.26v5.23c0 3.1-1.6 5.99-4.23 7.63l-3.09 1.93a1.3 1.3 0 0 1-1.37 0l-3.09-1.93A8.99 8.99 0 0 1 4 11.24zm9.68 2.91-1.33-2.7c-.14-.3-.57-.3-.71 0l-1.34 2.7c-.04.09-.12.15-.22.16l-2.98.43c-.33.05-.46.45-.22.68l2.15 2.1c.07.07.11.17.09.27l-.51 2.97c-.05.32.29.57.58.42l2.66-1.4c.09-.05.2-.05.28 0l2.67 1.39c.29.16.63-.09.58-.42l-.51-2.96c-.02-.1.01-.2.08-.27l2.16-2.1c.24-.23.11-.63-.22-.68l-2.98-.43a.3.3 0 0 1-.23-.16"/></svg>
